build/img/sprite/icon-pages.svg

<svg viewBox="0 0 32 32" fill="none" xmlns="http://www.w3.org/2000/svg">
<path d="M25.2857 4.85645H3V30.8564H25.2857V4.85645Z" stroke="#2C8ECC" stroke-width="2" stroke-miterlimit="10" stroke-linecap="square"/>
<path d="M7.64258 12.2852H19.714" stroke="#2C8ECC" stroke-width="2" stroke-miterlimit="10" stroke-linecap="square"/>
<path d="M7.64258 17.8564H19.714" stroke="#2C8ECC" stroke-width="2" stroke-miterlimit="10" stroke-linecap="square"/>
<path d="M7.64258 23.4287H12.2854" stroke="#2C8ECC" stroke-width="2" stroke-miterlimit="10" stroke-linecap="square"/>
<path d="M6 1.14258H29V27.8854" stroke="#2C8ECC" stroke-width="2" stroke-miterlimit="10" stroke-linecap="square"/>
</svg>

<svg viewBox="0 0 32 32" fill="none" xmlns="http://www.w3.org/2000/svg"><path d="M25.286 4.856H3v26h22.286v-26zM7.643 12.285h12.071M7.643 17.856h12.071M7.643 23.429h4.642" stroke="#2C8ECC" stroke-width="2" stroke-miterlimit="10" stroke-linecap="square"/><path d="M6 1.143h23v26.742" stroke="#2C8ECC" stroke-width="2" stroke-miterlimit="10" stroke-linecap="square"/></svg>
